src/icons/svg/sitemap.svg

<?xml version="1.0" encoding="UTF-8"?>
<svg width="40px" height="35px" viewBox="0 0 40 35" version="1.1" xmlns="http://www.w3.org/2000/svg"
>
    <path d="M40,25 L40,32.1428572 C40,32.7380953 39.7916667,33.2440476 39.375,33.6607143 C38.9583333,34.077381 38.452381,34.2857143 37.8571429,34.2857143 L30.7142857,34.2857143 C30.1190476,34.2857143 29.6130952,34.077381 29.1964286,33.6607143 C28.7797619,33.2440476 28.5714286,32.7380953 28.5714286,32.1428572 L28.5714286,25 C28.5714286,24.4047619 28.7797619,23.8988095 29.1964286,23.4821429 C29.6130952,23.0654762 30.1190476,22.8571429 30.7142857,22.8571429 L32.8571429,22.8571429 L32.8571429,18.5714286 L21.4285714,18.5714286 L21.4285714,22.8571429 L23.5714286,22.8571429 C24.1666667,22.8571429 24.6726191,23.0654762 25.0892857,23.4821429 C25.5059524,23.8988095 25.7142857,24.4047619 25.7142857,25 L25.7142857,32.1428572 C25.7142857,32.7380953 25.5059524,33.2440476 25.0892857,33.6607143 C24.6726191,34.077381 24.1666667,34.2857143 23.5714286,34.2857143 L16.4285714,34.2857143 C15.8333333,34.2857143 15.3273809,34.077381 14.9107143,33.6607143 C14.4940476,33.2440476 14.2857143,32.7380953 14.2857143,32.1428572 L14.2857143,25 C14.2857143,24.4047619 14.4940476,23.8988095 14.9107143,23.4821429 C15.3273809,23.0654762 15.8333333,22.8571429 16.4285714,22.8571429 L18.5714286,22.8571429 L18.5714286,18.5714286 L7.14285714,18.5714286 L7.14285714,22.8571429 L9.28571429,22.8571429 C9.88095239,22.8571429 10.3869048,23.0654762 10.8035714,23.4821429 C11.2202381,23.8988095 11.4285714,24.4047619 11.4285714,25 L11.4285714,32.1428572 C11.4285714,32.7380953 11.2202381,33.2440476 10.8035714,33.6607143 C10.3869048,34.077381 9.88095239,34.2857143 9.28571429,34.2857143 L2.14285715,34.2857143 C1.54761905,34.2857143 1.04166667,34.077381 0.624999999,33.6607143 C0.208333333,33.2440476 2.77555756e-16,32.7380953 2.77555756e-16,32.1428572 L2.77555756e-16,25 C2.77555756e-16,24.4047619 0.208333333,23.8988095 0.624999999,23.4821429 C1.04166667,23.0654762 1.54761905,22.8571429 2.14285715,22.8571429 L4.28571429,22.8571429 L4.28571429,18.5714286 C4.28571429,17.797619 4.56845239,17.1279762 5.13392859,16.5625 C5.69940479,15.9970239 6.36904764,15.7142858 7.14285714,15.7142857 L18.5714286,15.7142857 L18.5714286,11.4285714 L16.4285714,11.4285714 C15.8333333,11.4285714 15.3273809,11.2202381 14.9107143,10.8035714 C14.4940476,10.3869048 14.2857143,9.88095239 14.2857143,9.28571429 L14.2857143,2.14285715 C14.2857143,1.54761905 14.4940476,1.04166667 14.9107143,0.624999999 C15.3273809,0.208333333 15.8333333,0 16.4285714,0 L23.5714286,0 C24.1666667,0 24.6726191,0.208333333 25.0892857,0.624999999 C25.5059524,1.04166667 25.7142857,1.54761905 25.7142857,2.14285715 L25.7142857,9.28571429 C25.7142857,9.88095239 25.5059524,10.3869048 25.0892857,10.8035714 C24.6726191,11.2202381 24.1666667,11.4285714 23.5714286,11.4285714 L21.4285714,11.4285714 L21.4285714,15.7142857 L32.8571429,15.7142857 C33.6309524,15.7142857 34.3005952,15.9970238 34.8660714,16.5625 C35.4315476,17.1279762 35.7142857,17.7976191 35.7142857,18.5714286 L35.7142857,22.8571429 L37.8571429,22.8571429 C38.452381,22.8571429 38.9583333,23.0654762 39.375,23.4821429 C39.7916667,23.8988095 40,24.4047619 40,25 Z"
          id="路径"></path>
</svg>

<svg width="40" height="35" xmlns="http://www.w3.org/2000/svg"><path d="M40 25v7.143c0 .595-.208 1.101-.625 1.518a2.066 2.066 0 0 1-1.518.625h-7.143a2.066 2.066 0 0 1-1.518-.625 2.066 2.066 0 0 1-.625-1.518V25c0-.595.209-1.101.625-1.518a2.066 2.066 0 0 1 1.518-.625h2.143v-4.286H21.43v4.286h2.142c.596 0 1.102.208 1.518.625.417.417.625.923.625 1.518v7.143c0 .595-.208 1.101-.625 1.518a2.066 2.066 0 0 1-1.518.625H16.43a2.066 2.066 0 0 1-1.518-.625 2.066 2.066 0 0 1-.625-1.518V25c0-.595.208-1.101.625-1.518a2.066 2.066 0 0 1 1.518-.625h2.142v-4.286H7.143v4.286h2.143c.595 0 1.1.208 1.518.625.416.417.625.923.625 1.518v7.143c0 .595-.209 1.101-.625 1.518a2.066 2.066 0 0 1-1.518.625H2.143a2.066 2.066 0 0 1-1.518-.625A2.066 2.066 0 0 1 0 32.143V25c0-.595.208-1.101.625-1.518a2.066 2.066 0 0 1 1.518-.625h2.143v-4.286c0-.773.282-1.443.848-2.009.565-.565 1.235-.848 2.009-.848H18.57V11.43H16.43a2.066 2.066 0 0 1-1.518-.625 2.066 2.066 0 0 1-.625-1.518V2.143c0-.595.208-1.101.625-1.518A2.066 2.066 0 0 1 16.429 0h7.142c.596 0 1.102.208 1.518.625.417.417.625.923.625 1.518v7.143c0 .595-.208 1.1-.625 1.518a2.066 2.066 0 0 1-1.518.625H21.43v4.285h11.428c.774 0 1.444.283 2.01.848.565.566.847 1.236.847 2.01v4.285h2.143c.595 0 1.101.208 1.518.625.417.417.625.923.625 1.518z"/></svg>
